X: 35395
T: Rossinver Braes
R: hornpipe
M: 4/4
K: Fmajor
A,(CC)F AFE(F|F)B,A,B, ABGF|EFGA Bddc|=Bcdc AFEF|
A,(CC)F AFE(F|F)B,A,B, BAGF|EFGA Bddc|1 BGEG FCA,B,:|2 BGEG FAcB||
Acdc fca2|cdfe dcAc|B2gB bBg(B|B)gga edcB|
Acdc fca2|cdfe dcAc|A(BB)(c c)Ac(B|1 B)GEG FAcB:|2 BGEG FCA,B,||

